assets/img/braze_icons/layer-single.svg

<svg fill="none" height="24" viewBox="0 0 24 24" width="24" xmlns="http://www.w3.org/2000/svg"><path clip-rule="evenodd" d="m11.7234 6.0848c.1828-.03429.3704-.03429.5532 0 .2164.04061.4095.13914.5028.18675.0096.00491.0182.00927.0256.01297l9.6422 4.82108c.3388.1694.5528.5157.5528.8945 0 .3787-.214.725-.5528.8944l-9.6422 4.8211c-.0074.0037-.016.0081-.0256.013-.0933.0476-.2864.1461-.5028.1867-.1828.0343-.3704.0343-.5532 0-.2164-.0406-.4095-.1391-.5028-.1867-.0096-.0049-.0182-.0093-.0256-.013l-9.64221-4.8211c-.33879-.1694-.55279-.5157-.55279-.8944 0-.3788.214-.7251.55279-.8945l9.64221-4.82108c.0074-.0037.016-.00807.0256-.01297.0933-.04761.2864-.14614.5028-.18675z" fill="#801ed7" fill-rule="evenodd"/></svg>

<svg width="24" height="24" viewBox="0 0 24 24" fill="none" xmlns="http://www.w3.org/2000/svg">
<path fill-rule="evenodd" clip-rule="evenodd" d="M11.7234 6.0848C11.9062 6.05051 12.0938 6.05051 12.2766 6.0848C12.493 6.12541 12.6861 6.22394 12.7794 6.27155C12.789 6.27646 12.7976 6.28082 12.805 6.28452L22.4472 11.1056C22.786 11.275 23 11.6213 23 12.0001C23 12.3788 22.786 12.7251 22.4472 12.8945L12.805 17.7156C12.7976 17.7193 12.789 17.7237 12.7794 17.7286C12.6861 17.7762 12.493 17.8747 12.2766 17.9153C12.0938 17.9496 11.9062 17.9496 11.7234 17.9153C11.507 17.8747 11.3139 17.7762 11.2206 17.7286C11.211 17.7237 11.2024 17.7193 11.195 17.7156L1.55279 12.8945C1.214 12.7251 1 12.3788 1 12.0001C1 11.6213 1.214 11.275 1.55279 11.1056L11.195 6.28452C11.2024 6.28082 11.211 6.27645 11.2206 6.27155C11.3139 6.22394 11.507 6.12541 11.7234 6.0848Z" fill="#801ED7"/>
</svg>
